fs/star_edit_24_regular.svg

<svg viewBox="0 0 24 24" fill="none" xmlns="http://www.w3.org/2000/svg" height="1em" width="1em">
  <path d="M13.209 3.10215C12.7138 2.09876 11.283 2.09877 10.7878 3.10215L8.42988 7.87987L3.15735 8.64601C2.05005 8.80691 1.60791 10.1677 2.40916 10.9487L6.2244 14.6676L5.32374 19.9189C5.13459 21.0217 6.29213 21.8627 7.28252 21.342L10.227 19.794L10.531 18.5766C10.6001 18.3 10.7007 18.0336 10.83 17.7823L6.85353 19.8729L7.71614 14.8435C7.79125 14.4055 7.64606 13.9587 7.32788 13.6486L3.67382 10.0867L8.72361 9.35294C9.16332 9.28904 9.54344 9.01288 9.74008 8.61443L11.9984 4.03854L14.2568 8.61443C14.4534 9.01288 14.8335 9.28904 15.2732 9.35294L19.7229 9.99952C20.4502 10.0008 21.1772 10.2424 21.7747 10.7243C22.3037 9.93177 21.8468 8.79239 20.8395 8.64601L15.567 7.87987L13.209 3.10215ZM18.1 11.669L12.2039 17.5714C11.8602 17.9155 11.6163 18.3467 11.4984 18.8189L11.0412 20.6496C10.8424 21.4457 11.5628 22.1669 12.358 21.9678L14.1868 21.5102C14.6584 21.3921 15.0891 21.148 15.4329 20.8038L21.3289 14.9014C22.2206 14.0088 22.2206 12.5616 21.3289 11.669C20.4373 10.7764 18.9916 10.7764 18.1 11.669Z" fill="#212121"/>
</svg>

<svg viewBox="0 0 24 24" fill="none" xmlns="http://www.w3.org/2000/svg" height="1em" width="1em">
  <path d="M13.209 3.102c-.495-1.003-1.926-1.003-2.421 0L8.43 7.88l-5.273.766c-1.107.16-1.55 1.522-.748 2.303l3.815 3.719-.9 5.25c-.19 1.104.968 1.945 1.959 1.424l2.944-1.548.304-1.217c.07-.277.17-.543.299-.795l-3.976 2.09.862-5.028a1.35 1.35 0 0 0-.388-1.195l-3.654-3.562 5.05-.734c.44-.064.82-.34 1.016-.739l2.258-4.575 2.259 4.575a1.35 1.35 0 0 0 1.016.739l4.45.647a3.272 3.272 0 0 1 2.052.724c.529-.792.072-1.932-.935-2.078l-5.273-.766-2.358-4.778ZM18.1 11.67l-5.896 5.902a2.686 2.686 0 0 0-.706 1.248l-.457 1.83a1.086 1.086 0 0 0 1.317 1.319l1.829-.458a2.682 2.682 0 0 0 1.246-.706l5.896-5.903a2.287 2.287 0 0 0 0-3.232 2.281 2.281 0 0 0-3.229 0Z" fill="#212121"/>
</svg>
